images/favicon.svg

<svg width="32" height="32" viewBox="0 0 32 32" fill="none" xmlns="http://www.w3.org/2000/svg">
<rect width="32" height="32" rx="16" fill="#347EFF"/>
<path d="M21.8828 10.625V12L20.6641 12.2344V22H18.3906L13.7969 14.3438L13.75 14.3516V20.3984L14.9688 20.6328V22H10.2578V20.6328L11.4688 20.3984V12.2344L10.2578 12V10.625H11.4688H13.75L18.3438 18.2812L18.3906 18.2734V12.2344L17.1719 12V10.625H20.6641H21.8828Z" fill="white"/>
</svg>

<svg width="32" height="32" fill="none" xmlns="http://www.w3.org/2000/svg"><rect width="32" height="32" rx="16" fill="#347EFF"/><path d="M21.883 10.625V12l-1.219.234V22h-2.273l-4.594-7.656-.047.008v6.046l1.219.235V22h-4.711v-1.367l1.21-.235v-8.164L10.259 12v-1.375h3.492l4.594 7.656.047-.008v-6.039L17.17 12v-1.375h4.712z" fill="#fff"/></svg>
